src/static/logos/dojo-toolkit.svg

<?xml version="1.0" encoding="UTF-8" standalone="no"?>
<svg width="512px" height="239px" viewBox="0 0 512 239" version="1.1" xmlns="http://www.w3.org/2000/svg" xmlns:xlink="http://www.w3.org/1999/xlink" preserveAspectRatio="xMidYMid">
	<g>
		<path d="M130.873388,0 L154.879501,0 L154.879501,193.076897 L130.873388,193.076897 L130.873388,175.256702 C116.803867,189.165536 97.694191,197.43239 77.4806706,197.43239 C51.0722495,197.43239 16.2143314,181.294908 4.21077583,141.689263 C3.05702924,138.024421 2.01406628,133.064109 1.81046394,130.598924 C0.434152047,113.970402 1.06492008,112.836616 1.81046394,107.033949 C7.90356335,59.6175595 46.2706277,40.2004834 77.4806706,40.2004834 C92.4135049,40.2004834 105.999969,44.3094581 117.475556,51.2888265 L114.113123,73.3677037 C104.511875,65.2525536 92.0292554,60.0038051 77.4806706,60.0038051 C46.2706277,60.0038051 21.0159532,86.0439454 21.0159532,118.223096 C21.0159532,147.925084 43.8693177,177.630066 77.4806706,177.630066 C99.663345,177.630066 121.846019,163.673326 130.873388,140.79501 L130.873388,0" fill="#353535"></path>
		<path d="M237.346433,40.6486082 C205.974706,40.6486082 165.549661,59.4419025 161.28499,106.057856 C160.760016,111.800639 160.253006,117.967595 161.28499,129.119813 C161.508554,131.533099 162.538542,136.387618 163.698277,139.974612 C175.76471,178.734908 210.801279,194.52906 237.346433,194.52906 C278.36931,194.52906 314.56761,161.777029 314.56761,117.008468 C314.56761,75.8239064 281.942331,40.6486082 237.346433,40.6486082 L237.346433,40.6486082 L237.346433,40.6486082 Z M237.346433,175.148912 C203.561419,175.148912 180.590285,146.076694 180.590285,117.008468 C180.590285,85.5139805 205.974706,60.0297544 237.346433,60.0297544 C272.289185,60.0297544 295.262316,89.1009747 295.262316,117.008468 C295.262316,152.087953 266.304873,175.148912 237.346433,175.148912 L237.346433,175.148912 L237.346433,175.148912 Z" fill="#353535"></path>
		<path d="M273.92,17.0247485 C273.92,19.4669786 272.602573,19.4669786 271.385949,20.3243041 L205.55253,20.3243041 C205.55253,19.4669786 204.237099,19.4669786 204.237099,17.0247485 C204.237099,15.3749708 205.55253,15.3749708 206.770152,14.5176452 L272.602573,14.5176452 C272.602573,15.3749708 273.92,15.3749708 273.92,17.0247485" fill="#8C8C8C"></path>
		<path d="M328.295797,6.37554776 L347.563166,6.37554776 L347.563166,35.3220117 L328.295797,35.3220117 L328.295797,6.37554776 L328.295797,6.37554776 Z" fill="#353535"></path>
		<path d="M347.563166,183.281029 C348.908538,206.341988 319.241481,238.080998 319.241481,238.080998 L306.669037,220.527283 C322.999142,208.947899 328.104172,190.609715 328.489419,182.074386 L328.295797,44.9701676 L347.563166,44.9701676 L347.563166,183.281029" fill="#353535"></path>
		<path d="M434.777825,40.6486082 C403.408094,40.6486082 362.983049,59.4409045 358.71738,106.057856 C358.192405,111.799641 357.685396,117.966596 358.71738,129.119813 C358.941942,131.533099 359.97193,136.387618 361.131665,139.973614 C373.196101,178.734908 408.234667,194.530058 434.777825,194.530058 C475.802698,194.530058 512,161.777029 512,117.00747 C512,75.8229084 479.374721,40.6486082 434.777825,40.6486082 L434.777825,40.6486082 L434.777825,40.6486082 Z M434.777825,175.146916 C400.994807,175.146916 378.024671,146.077692 378.024671,117.00747 C378.024671,85.5129825 403.408094,60.0277583 434.777825,60.0277583 C469.722573,60.0277583 492.694706,89.0999766 492.694706,117.00747 C492.694706,152.087953 463.736265,175.146916 434.777825,175.146916 L434.777825,175.146916 L434.777825,175.146916 Z" fill="#353535"></path>
		<path d="M468.44906,17.0247485 C468.44906,19.4669786 467.13363,19.4669786 465.917006,20.3243041 L400.082589,20.3243041 C400.082589,19.4669786 398.767158,19.4669786 398.767158,17.0247485 C398.767158,15.3749708 400.082589,15.3749708 401.299212,14.5176452 L467.13363,14.5176452 C467.13363,15.3749708 468.44906,15.3749708 468.44906,17.0247485" fill="#8C8C8C"></path>
	</g>
</svg>

<svg width="512" height="239" xmlns="http://www.w3.org/2000/svg" preserveAspectRatio="xMidYMid"><path d="M130.873 0h24.007v193.077h-24.007v-17.82c-14.07 13.909-33.179 22.175-53.392 22.175-26.409 0-61.267-16.137-73.27-55.743-1.154-3.665-2.197-8.625-2.4-11.09-1.377-16.629-.746-17.762 0-23.565C7.903 59.618 46.27 40.2 77.48 40.2c14.933 0 28.519 4.11 39.995 11.089l-3.363 22.079c-9.601-8.115-22.084-13.364-36.632-13.364-31.21 0-56.465 26.04-56.465 58.22 0 29.701 22.853 59.406 56.465 59.406 22.182 0 44.365-13.957 53.392-36.835V0m106.474 40.649c-31.371 0-71.796 18.793-76.061 65.409-.525 5.743-1.032 11.91 0 23.062.224 2.413 1.254 7.268 2.413 10.855 12.067 38.76 47.103 54.554 73.648 54.554 41.023 0 77.222-32.752 77.222-77.52 0-41.185-32.626-76.36-77.222-76.36zm0 134.5c-33.785 0-56.756-29.072-56.756-58.14 0-31.495 25.385-56.98 56.756-56.98 34.943 0 57.916 29.072 57.916 56.98 0 35.079-28.957 58.14-57.916 58.14z" fill="#353535"/><path d="M273.92 17.025c0 2.442-1.317 2.442-2.534 3.3h-65.833c0-.858-1.316-.858-1.316-3.3 0-1.65 1.316-1.65 2.533-2.507h65.833c0 .857 1.317.857 1.317 2.507" fill="#8C8C8C"/><path d="M328.296 6.376h19.267v28.946h-19.267V6.376zm19.267 176.905c1.346 23.061-28.322 54.8-28.322 54.8l-12.572-17.554c16.33-11.58 21.435-29.917 21.82-38.453l-.193-137.104h19.267v138.311m87.215-142.632c-31.37 0-71.795 18.792-76.06 65.409-.526 5.742-1.033 11.909 0 23.062.224 2.413 1.254 7.268 2.414 10.854 12.064 38.76 47.103 54.556 73.646 54.556 41.025 0 77.222-32.753 77.222-77.523 0-41.184-32.625-76.358-77.222-76.358zm0 134.498c-33.783 0-56.753-29.07-56.753-58.14 0-31.494 25.383-56.98 56.753-56.98 34.945 0 57.917 29.073 57.917 56.98 0 35.081-28.959 58.14-57.917 58.14z" fill="#353535"/><path d="M468.45 17.025c0 2.442-1.316 2.442-2.533 3.3h-65.834c0-.858-1.316-.858-1.316-3.3 0-1.65 1.316-1.65 2.532-2.507h65.835c0 .857 1.315.857 1.315 2.507" fill="#8C8C8C"/></svg>
